Catalina-light/actions/16/debug-step-over.svg

<svg xmlns="http://www.w3.org/2000/svg" width="16" height="16" viewBox="0 0 16 16">
 <defs>
  <style id="current-color-scheme" type="text/css">
   .ColorScheme-Text { color:#5c616c; } .ColorScheme-Highlight { color:#5294e2; }
  </style>
 </defs>
 <path style="fill:currentColor" class="ColorScheme-Text" d="M 3.0097656 1 C 0.76106563 1 1.0097656 3 1.0097656 3 L 1.0097656 15 L 15.001953 15 L 15.001953 5 L 13.003906 5 L 13.003906 13 L 3.0097656 13 L 3.0097656 5 L 10.001953 5 L 10.001953 1 L 3.0097656 1 z M 11.001953 1 L 13.001953 4 L 15.001953 1 L 11.001953 1 z M 9.5898438 5.9941406 L 9.578125 6 L 9.578125 6.5917969 C 10.288405 6.5917969 10.296875 6.8309256 10.296875 7.6972656 C 10.303875 7.7776656 10.298866 7.89589 10.322266 8 C 10.375466 8.37563 10.546461 8.8013462 11.019531 9.0039062 C 10.420841 9.2602562 10.296875 9.8794719 10.296875 10.294922 C 10.283175 10.485582 10.279694 10.88403 10.246094 11 C 10.182594 11.28989 10.027635 11.408203 9.578125 11.408203 L 9.578125 12 C 10.535375 12 10.989066 11.71164 11.072266 11 C 11.076266 10.89186 11.094844 10.697367 11.089844 10.523438 C 11.089844 9.9665275 11.110649 9.3222656 11.699219 9.3222656 L 12.003906 9.3222656 L 12.003906 8.6777344 L 11.699219 8.6777344 C 11.296489 8.6777344 11.167274 8.36892 11.121094 8 C 11.114094 7.84134 11.089844 7.2539062 11.089844 7.2539062 C 11.099844 6.3439063 10.649844 5.9941406 9.5898438 5.9941406 z M 6.4355469 6 C 5.3700469 6 4.921875 6.3522562 4.921875 7.2539062 C 4.921875 7.2539062 4.897325 7.84134 4.890625 8 C 4.844425 8.36892 4.71523 8.6777344 4.3125 8.6777344 L 4.0078125 8.6777344 L 4.0078125 9.3222656 L 4.3125 9.3222656 C 4.90105 9.3222656 4.921875 9.9664975 4.921875 10.523438 C 4.916875 10.697368 4.9354531 10.89186 4.9394531 11 C 5.0227531 11.71164 5.4782969 12 6.4355469 12 L 6.4355469 11.408203 C 5.9860369 11.408203 5.829155 11.28989 5.765625 11 C 5.731925 10.88403 5.7284437 10.485582 5.7148438 10.294922 C 5.7148438 9.8794619 5.5908775 9.2602063 4.9921875 9.0039062 C 5.4652575 8.8013362 5.6362631 8.37562 5.6894531 8 C 5.7133531 7.89589 5.7080438 7.7776956 5.7148438 7.6972656 C 5.7148438 6.8309556 5.7252369 6.5917969 6.4355469 6.5917969 L 6.4355469 6 z"/>
</svg>

<svg width="16" height="16" viewBox="0 0 16 16" xmlns="http://www.w3.org/2000/svg">
<defs>
<style id="current-color-scheme" type="text/css">.ColorScheme-Text { color:#5c616c; } .ColorScheme-Highlight { color:#5294e2; }</style>
</defs>
<path class="ColorScheme-Text" d="m3.0098 1c-2.2487 0-2 2-2 2v12h13.992v-10h-1.998v8h-9.9941v-8h6.9922v-4h-6.9922zm7.9922 0 2 3 2-3h-4zm-1.4121 4.9941-0.011719 0.0058594v0.5918c0.71028 0 0.71875 0.23913 0.71875 1.1055 7e-3 0.0804 0.001991 0.19862 0.025391 0.30273 0.0532 0.37563 0.2242 0.80135 0.69726 1.0039-0.59869 0.25635-0.72266 0.87557-0.72266 1.291-0.0137 0.19066-0.017181 0.58911-0.050781 0.70508-0.0635 0.28989-0.21846 0.4082-0.66797 0.4082v0.5918c0.95725 0 1.4109-0.28836 1.4941-1 4e-3 -0.10814 0.022578-0.30263 0.017578-0.47656 0-0.55691 0.020805-1.2012 0.60938-1.2012h0.30469v-0.64453h-0.30469c-0.40273 0-0.53194-0.30881-0.57812-0.67773-7e-3 -0.15866-0.03125-0.74609-0.03125-0.74609 0.01-0.91-0.44-1.2598-1.5-1.2598zm-3.1543 0.0058594c-1.0655 0-1.5137 0.35226-1.5137 1.2539 0 0-0.02455 0.58743-0.03125 0.74609-0.0462 0.36892-0.1754 0.67773-0.57812 0.67773h-0.30469v0.64453h0.30469c0.58855 0 0.60938 0.64423 0.60938 1.2012-5e-3 0.17393 0.013578 0.36842 0.017578 0.47656 0.0833 0.71164 0.53884 1 1.4961 1v-0.5918c-0.44951 0-0.60639-0.11831-0.66992-0.4082-0.0337-0.11597-0.037181-0.51442-0.050781-0.70508 0-0.41546-0.12397-1.0347-0.72266-1.291 0.47307-0.20257 0.64408-0.62829 0.69727-1.0039 0.0239-0.10411 0.018591-0.2223 0.025391-0.30273 0-0.86631 0.010393-1.1055 0.7207-1.1055v-0.5918z" fill="#363636"/>
</svg>
